X:2873
L:1/8
M:2/2
K:G
 (D | D)EGA Bcdd | efgf efge | dBAG EGGA G2 ED | DEGA Bcde | efgf efge | dBAG EGGA | G2 ED | 
 EGGA G3 :: a | b2 b2 abae | gage dBAG | E G2 A G2 ED | EGAB A2 a2 | b2 b2 abae | gage dBAG | 
 E G2 A G2 ED | EGGA G3 :|

